Numix-Circle/48x48/apps/flare.svg

<?xml version="1.0" encoding="UTF-8" standalone="no"?>
<svg
   xmlns:dc="http://purl.org/dc/elements/1.1/"
   xmlns:cc="http://creativecommons.org/ns#"
   xmlns:rdf="http://www.w3.org/1999/02/22-rdf-syntax-ns#"
   xmlns:svg="http://www.w3.org/2000/svg"
   xmlns="http://www.w3.org/2000/svg"
   xmlns:xlink="http://www.w3.org/1999/xlink"
   xmlns:sodipodi="http://sodipodi.sourceforge.net/DTD/sodipodi-0.dtd"
   xmlns:inkscape="http://www.inkscape.org/namespaces/inkscape"
   width="48"
   viewBox="0 0 13.546667 13.546667"
   height="48"
   id="svg2"
   version="1.1"
   inkscape:version="0.91 r13725"
   sodipodi:docname="flare.svg">
  <metadata
     id="metadata331">
    <rdf:RDF>
      <cc:Work
         rdf:about="">
        <dc:format>image/svg+xml</dc:format>
        <dc:type
           rdf:resource="http://purl.org/dc/dcmitype/StillImage" />
        <dc:title />
      </cc:Work>
    </rdf:RDF>
  </metadata>
  <sodipodi:namedview
     pagecolor="#ffffff"
     bordercolor="#666666"
     borderopacity="1"
     objecttolerance="10"
     gridtolerance="10"
     guidetolerance="10"
     inkscape:pageopacity="0"
     inkscape:pageshadow="2"
     inkscape:window-width="1920"
     inkscape:window-height="1052"
     id="namedview329"
     showgrid="false"
     inkscape:zoom="22.382575"
     inkscape:cx="23.647435"
     inkscape:cy="22.868901"
     inkscape:window-x="0"
     inkscape:window-y="28"
     inkscape:window-maximized="1"
     inkscape:current-layer="layer3"
     showguides="true"
     inkscape:guide-bbox="true">
    <inkscape:grid
       type="xygrid"
       id="grid3308" />
  </sodipodi:namedview>
  <defs
     id="defs4">
    <linearGradient
       id="linearGradient4146">
      <stop
         style="stop-color:#d9d7c6;stop-opacity:1;"
         offset="0"
         id="stop4148" />
      <stop
         style="stop-color:#e1dfd0;stop-opacity:1;"
         offset="1"
         id="stop4151" />
    </linearGradient>
    <linearGradient
       inkscape:collect="always"
       xlink:href="#linearGradient4146"
       id="linearGradient4153"
       x1="-27"
       y1="13"
       x2="-24"
       y2="13"
       gradientUnits="userSpaceOnUse" />
    <clipPath
       id="clipPath-887482936">
      <g
         transform="translate(0,-1004.3622)"
         id="g17">
        <path
           style="fill:#1890d0"
           inkscape:connector-curvature="0"
           d="m -24,13 c 0,1.105 -0.672,2 -1.5,2 -0.828,0 -1.5,-0.895 -1.5,-2 0,-1.105 0.672,-2 1.5,-2 0.828,0 1.5,0.895 1.5,2 z"
           transform="matrix(15.333333,0,0,11.5,414.99999,878.8622)"
           id="path19" />
      </g>
    </clipPath>
    <linearGradient
       id="linear0"
       gradientUnits="userSpaceOnUse"
       y1="844.09003"
       x2="0"
       y2="-176.38"
       gradientTransform="matrix(0.0355394,0,0,0.0313583,10.315665,8.53083)">
      <stop
         stop-color="#ff6900"
         stop-opacity="1"
         id="stop22" />
      <stop
         offset="1"
         stop-color="#ffec00"
         stop-opacity="1"
         id="stop24" />
    </linearGradient>
  </defs>
  <g
     inkscape:groupmode="layer"
     id="layer1"
     inkscape:label="Shadow"
     sodipodi:insensitive="true">
    <path
       style="opacity:0.05;fill:#000000;fill-opacity:1;stroke:none"
       d="M 25,2 C 12.297451,2 2,12.297451 2,25 2,31.367153 4.6007106,37.116628 8.78125,41.28125 12.865755,44.99361 18.29568,47.25 24.25,47.25 c 12.702549,0 23,-10.297451 23,-23 0,-5.95432 -2.25639,-11.384245 -5.96875,-15.46875 C 37.116628,4.6007105 31.367153,2 25,2 z M 41.28125,8.78125 C 45.135604,12.894061 47.5,18.418655 47.5,24.5 c 0,12.702549 -10.297451,23 -23,23 C 18.418655,47.5 12.894061,45.135604 8.78125,41.28125 12.940939,45.4251 18.664604,48 25,48 37.702549,48 48,37.702549 48,25 48,18.664604 45.4251,12.940939 41.28125,8.78125 z"
       transform="scale(0.28222223,0.28222223)"
       id="path3978"
       inkscape:connector-curvature="0" />
    <path
       style="opacity:0.1;fill:#000000;fill-opacity:1;stroke:none"
       d="M 41.28125,8.78125 C 44.99361,12.865755 47.25,18.29568 47.25,24.25 c 0,12.702549 -10.297451,23 -23,23 -5.95432,0 -11.384245,-2.25639 -15.46875,-5.96875 C 12.894061,45.135604 18.418655,47.5 24.5,47.5 c 12.702549,0 23,-10.297451 23,-23 0,-6.081345 -2.364396,-11.605939 -6.21875,-15.71875 z"
       transform="scale(0.28222223,0.28222223)"
       id="path3976"
       inkscape:connector-curvature="0" />
    <path
       transform="matrix(4.3274074,0,0,3.2455556,117.19278,-35.348334)"
       d="m -24,13 a 1.5,2 0 1 1 -3,0 1.5,2 0 1 1 3,0 z"
       sodipodi:ry="2"
       sodipodi:rx="1.5"
       sodipodi:cy="13"
       sodipodi:cx="-25.5"
       id="path3952"
       style="opacity:0.2;fill:#000000;fill-opacity:1;stroke:none"
       sodipodi:type="arc" />
  </g>
  <g
     inkscape:groupmode="layer"
     id="layer2"
     inkscape:label="Base">
    <path
       sodipodi:type="arc"
       style="fill:url(#linearGradient4153);fill-opacity:1;stroke:none"
       id="path3942"
       sodipodi:cx="-25.5"
       sodipodi:cy="13"
       sodipodi:rx="1.5"
       sodipodi:ry="2"
       d="m -24,13 a 1.5,2 0 1 1 -3,0 1.5,2 0 1 1 3,0 z"
       transform="matrix(0,-4.3274075,3.2455556,0,-35.429918,-103.60974)" />
    <path
       style="opacity:0.1;fill:#000000;fill-opacity:1;stroke:none"
       d="M 40.03125 7.53125 C 43.74361 11.615755 46 17.04568 46 23 C 46 35.702549 35.702549 46 23 46 C 17.04568 46 11.615755 43.74361 7.53125 40.03125 C 11.709416 44.322508 17.537578 47 24 47 C 36.702549 47 47 36.702549 47 24 C 47 17.537578 44.322508 11.709416 40.03125 7.53125 z "
       transform="scale(0.28222223,0.28222223)"
       id="path4027" />
  </g>
  <g
     inkscape:groupmode="layer"
     id="layer3"
     inkscape:label="Symbol">
    <g
       id="g3423"
       transform="matrix(0.28222223,0,0,0.28222223,0.27772016,0.28193998)"
       style="opacity:0.1;fill:#000000;fill-opacity:1">
      <g
         id="g3425"
         clip-path="url(#clipPath-887482936)"
         style="fill:#000000;fill-opacity:1">
        <!-- color: #8e5050 -->
        <g
           id="g3427"
           style="fill:#000000;fill-opacity:1">
          <path
             id="path3429"
             d="m 20,9 c -0.574,0.77 -1.039,3.41 0.621,4.715 C 22.582,15.278 23,17.156 23,20 c 0,4 -3.379,7.203 -1,11 -6.641,-5.469 0.051,-13.676 -5,-17 2,5 -5,8 -4.984,12.852 C 12,32 16,35 20.801,34.989 17.379,33.598 15.824,29.399 16,27.001 c 2.406,5.453 6,8 12,8 -2.313,-3.02 -2.691,-3.402 -2.824,-5.324 0.012,-1.773 0.727,-2.168 1.977,-4.387 3.145,-4.934 1.707,-9.914 -2.574,-12.238 -0.871,-0.434 -1.105,-0.555 -2.691,-1.176 -0.914,-0.426 -1.824,-1.352 -1.887,-2.875 m 10.727,8.355 c 3.172,4.059 -0.441,7.355 -2.098,9.84 -1.359,1.953 -0.051,5.184 1.371,7.805 0.125,-2.215 1.602,-3.738 2.797,-4.531 3.66,-2.754 3.777,-6.355 1.836,-9.559 -1.219,-1.758 -2.297,-2.328 -3.906,-3.555 m 0,0"
             inkscape:connector-curvature="0"
             style="fill:#000000;fill-opacity:1;fill-rule:nonzero;stroke:none" />
        </g>
      </g>
    </g>
    <g
       transform="matrix(0.28222223,0,0,0.28222223,-0.00450207,-2.822514e-4)"
       id="g58">
      <g
         clip-path="url(#clipPath-887482936)"
         id="g60">
        <!-- color: #8e5050 -->
        <g
           id="g62">
          <path
             style="fill:url(#linear0);fill-rule:nonzero;stroke:none"
             inkscape:connector-curvature="0"
             d="m 20,9 c -0.574,0.77 -1.039,3.41 0.621,4.715 C 22.582,15.278 23,17.156 23,20 c 0,4 -3.379,7.203 -1,11 -6.641,-5.469 0.051,-13.676 -5,-17 2,5 -5,8 -4.984,12.852 C 12,32 16,35 20.801,34.989 17.379,33.598 15.824,29.399 16,27.001 c 2.406,5.453 6,8 12,8 -2.313,-3.02 -2.691,-3.402 -2.824,-5.324 0.012,-1.773 0.727,-2.168 1.977,-4.387 3.145,-4.934 1.707,-9.914 -2.574,-12.238 -0.871,-0.434 -1.105,-0.555 -2.691,-1.176 -0.914,-0.426 -1.824,-1.352 -1.887,-2.875 m 10.727,8.355 c 3.172,4.059 -0.441,7.355 -2.098,9.84 -1.359,1.953 -0.051,5.184 1.371,7.805 0.125,-2.215 1.602,-3.738 2.797,-4.531 3.66,-2.754 3.777,-6.355 1.836,-9.559 -1.219,-1.758 -2.297,-2.328 -3.906,-3.555 m 0,0"
             id="path64" />
        </g>
      </g>
    </g>
  </g>
</svg>

<svg xmlns="http://www.w3.org/2000/svg" width="48" viewBox="0 0 13.546667 13.546667" height="48">
 <defs>
  <linearGradient id="linearGradient4153" x1="-27" x2="-24" gradientUnits="userSpaceOnUse">
   <stop style="stop-color:#d9d7c6;stop-opacity:1"/>
   <stop offset="1" style="stop-color:#e1dfd0;stop-opacity:1"/>
  </linearGradient>
  <clipPath id="clipPath-887482936">
   <g transform="translate(0,-1004.3622)">
    <path d="m -24 13 c 0 1.105 -0.672 2 -1.5 2 -0.828 0 -1.5 -0.895 -1.5 -2 0 -1.105 0.672 -2 1.5 -2 0.828 0 1.5 0.895 1.5 2 z" transform="matrix(15.333333,0,0,11.5,414.99999,878.8622)" style="fill:#1890d0"/>
   </g>
  </clipPath>
  <linearGradient id="linear0" gradientUnits="userSpaceOnUse" y1="844.09" x2="0" y2="-176.38" gradientTransform="matrix(0.0355394,0,0,0.0313583,10.315665,8.53083)">
   <stop style="stop-color:#ff6900;stop-opacity:1"/>
   <stop offset="1" style="stop-color:#ffec00;stop-opacity:1"/>
  </linearGradient>
 </defs>
 <g>
  <path d="m 25 2 c -12.703 0 -23 10.297 -23 23 0 6.367 2.601 12.12 6.781 16.281 4.085 3.712 9.514 5.969 15.469 5.969 c 12.703 0 23 -10.297 23 -23 0 -5.954 -2.256 -11.384 -5.969 -15.469 c -4.165 -4.181 -9.914 -6.781 -16.281 -6.781 z m 16.281 6.781 c 3.854 4.113 6.219 9.637 6.219 15.719 c 0 12.703 -10.297 23 -23 23 c -6.081 0 -11.606 -2.364 -15.719 -6.219 4.16 4.144 9.883 6.719 16.219 6.719 12.703 0 23 -10.297 23 -23 0 -6.335 -2.575 -12.06 -6.719 -16.219 z" transform="scale(0.28222223,0.28222223)" style="fill:#000;opacity:0.05;fill-opacity:1;stroke:none"/>
  <path d="m 41.28 8.781 c 3.712 4.085 5.969 9.514 5.969 15.469 c 0 12.703 -10.297 23 -23 23 -5.954 0 -11.384 -2.256 -15.469 -5.969 c 4.113 3.854 9.637 6.219 15.719 6.219 c 12.703 0 23 -10.297 23 -23 0 -6.081 -2.364 -11.606 -6.219 -15.719 z" transform="scale(0.28222223,0.28222223)" style="fill:#000;opacity:0.1;fill-opacity:1;stroke:none"/>
  <path transform="matrix(4.3274074,0,0,3.2455556,117.19278,-35.348334)" d="m -24 13 a 1.5 2 0 1 1 -3 0 1.5 2 0 1 1 3 0 z" style="fill:#000;opacity:0.2;fill-opacity:1;stroke:none"/>
 </g>
 <g>
  <path d="m -24 13 a 1.5 2 0 1 1 -3 0 1.5 2 0 1 1 3 0 z" transform="matrix(0,-4.3274075,3.2455556,0,-35.429918,-103.60974)" style="fill:url(#linearGradient4153);fill-opacity:1;stroke:none"/>
  <path d="m 40.03 7.531 c 3.712 4.085 5.969 9.514 5.969 15.469 c 0 12.703 -10.297 23 -23 23 c -5.954 0 -11.384 -2.256 -15.469 -5.969 c 4.178 4.291 10.01 6.969 16.469 6.969 c 12.703 0 23 -10.297 23 -23 c 0 -6.462 -2.677 -12.291 -6.969 -16.469 z" transform="scale(0.28222223,0.28222223)" style="fill:#000;opacity:0.1;fill-opacity:1;stroke:none"/>
 </g>
 <g>
  <g transform="matrix(0.28222223,0,0,0.28222223,0.27772016,0.28193998)" style="fill:#000;opacity:0.1;fill-opacity:1">
   <g style="clip-path:url(#clipPath-887482936)">
    <!-- color: #8e5050 -->
    <g>
     <path d="m 20,9 c -0.574,0.77 -1.039,3.41 0.621,4.715 C 22.582,15.278 23,17.156 23,20 c 0,4 -3.379,7.203 -1,11 -6.641,-5.469 0.051,-13.676 -5,-17 2,5 -5,8 -4.984,12.852 C 12,32 16,35 20.801,34.989 17.379,33.598 15.824,29.399 16,27.001 c 2.406,5.453 6,8 12,8 -2.313,-3.02 -2.691,-3.402 -2.824,-5.324 0.012,-1.773 0.727,-2.168 1.977,-4.387 3.145,-4.934 1.707,-9.914 -2.574,-12.238 -0.871,-0.434 -1.105,-0.555 -2.691,-1.176 -0.914,-0.426 -1.824,-1.352 -1.887,-2.875 m 10.727,8.355 c 3.172,4.059 -0.441,7.355 -2.098,9.84 -1.359,1.953 -0.051,5.184 1.371,7.805 0.125,-2.215 1.602,-3.738 2.797,-4.531 3.66,-2.754 3.777,-6.355 1.836,-9.559 -1.219,-1.758 -2.297,-2.328 -3.906,-3.555 m 0,0" style="stroke:none;fill-rule:nonzero"/>
    </g>
   </g>
  </g>
  <g transform="matrix(0.28222223,0,0,0.28222223,-0.00450207,-2.822514e-4)">
   <g style="clip-path:url(#clipPath-887482936)">
    <!-- color: #8e5050 -->
    <g>
     <path d="m 20,9 c -0.574,0.77 -1.039,3.41 0.621,4.715 C 22.582,15.278 23,17.156 23,20 c 0,4 -3.379,7.203 -1,11 -6.641,-5.469 0.051,-13.676 -5,-17 2,5 -5,8 -4.984,12.852 C 12,32 16,35 20.801,34.989 17.379,33.598 15.824,29.399 16,27.001 c 2.406,5.453 6,8 12,8 -2.313,-3.02 -2.691,-3.402 -2.824,-5.324 0.012,-1.773 0.727,-2.168 1.977,-4.387 3.145,-4.934 1.707,-9.914 -2.574,-12.238 -0.871,-0.434 -1.105,-0.555 -2.691,-1.176 -0.914,-0.426 -1.824,-1.352 -1.887,-2.875 m 10.727,8.355 c 3.172,4.059 -0.441,7.355 -2.098,9.84 -1.359,1.953 -0.051,5.184 1.371,7.805 0.125,-2.215 1.602,-3.738 2.797,-4.531 3.66,-2.754 3.777,-6.355 1.836,-9.559 -1.219,-1.758 -2.297,-2.328 -3.906,-3.555 m 0,0" style="fill:url(#linear0);stroke:none;fill-rule:nonzero"/>
    </g>
   </g>
  </g>
 </g>
</svg>
